assets/linkedin.svg

<svg width="22" height="22" viewBox="0 0 22 22" fill="none" xmlns="http://www.w3.org/2000/svg">
<path d="M16.8071 16.8108H14.3642V12.9818C14.3642 12.0688 14.3458 10.8937 13.09 10.8937C11.8167 10.8937 11.6224 11.8873 11.6224 12.9149V16.8108H9.17858V8.9375H11.5253V10.01H11.5573C11.8855 9.39217 12.683 8.73858 13.8747 8.73858C16.3497 8.73858 16.808 10.3684 16.808 12.4887V16.8108H16.8071ZM6.41942 7.86042C6.23293 7.86066 6.04822 7.82409 5.87589 7.75281C5.70356 7.68152 5.547 7.57693 5.41517 7.44502C5.28334 7.3131 5.17885 7.15647 5.10768 6.98409C5.0365 6.81172 5.00005 6.62699 5.00042 6.4405C5.0006 6.15985 5.084 5.88555 5.24007 5.6523C5.39614 5.41905 5.61788 5.23731 5.87724 5.13008C6.13659 5.02285 6.42193 4.99493 6.69715 5.04986C6.97237 5.10479 7.22513 5.2401 7.42345 5.43868C7.62177 5.63726 7.75675 5.89019 7.81133 6.16548C7.8659 6.44078 7.83762 6.72607 7.73005 6.98529C7.62248 7.24451 7.44046 7.46601 7.20701 7.62178C6.97355 7.77755 6.69915 7.8606 6.4185 7.86042H6.41942ZM7.64408 16.8108H5.19383V8.9375H7.645V16.8108H7.64408ZM18.0308 2.75H3.96825C3.29358 2.75 2.75 3.28167 2.75 3.93892V18.0611C2.75 18.7183 3.2945 19.25 3.96733 19.25H18.0272C18.7 19.25 19.25 18.7183 19.25 18.0611V3.93892C19.25 3.28167 18.7 2.75 18.0272 2.75H18.0299H18.0308Z" fill="#1A191E"/>
</svg>

<svg width="22" height="22" fill="none" xmlns="http://www.w3.org/2000/svg"><path d="M16.807 16.81h-2.443v-3.828c0-.913-.018-2.088-1.274-2.088-1.273 0-1.468.993-1.468 2.02v3.897H9.18V8.938h2.346v1.072h.032c.329-.618 1.126-1.271 2.318-1.271 2.475 0 2.933 1.63 2.933 3.75v4.322ZM6.42 7.86A1.417 1.417 0 0 1 5.24 5.652 1.419 1.419 0 1 1 6.418 7.86h.001Zm1.225 8.95h-2.45V8.939h2.451v7.873ZM18.031 2.75H3.968c-.674 0-1.218.532-1.218 1.189V18.06c0 .657.545 1.189 1.217 1.189h14.06c.673 0 1.223-.532 1.223-1.189V3.94c0-.657-.55-1.189-1.223-1.189h.003Z" fill="#1A191E"/></svg>
